build/img/icon-google.svg

<svg width="24" height="24" viewBox="0 0 24 24" fill="none" xmlns="http://www.w3.org/2000/svg">
<path d="M18.75 11.2491H12.4514V13.35H16.2947C15.7209 15.1767 14.0166 16.5014 12 16.5014C9.51516 16.5014 7.49859 14.4848 7.49859 12C7.49859 9.51516 9.51516 7.49859 12 7.49859C13.253 7.49859 14.3836 8.00906 15.1978 8.83594L16.725 7.17797C15.5058 5.98406 13.8394 5.25 12 5.25C8.27062 5.25 5.25 8.27062 5.25 12C5.25 15.7294 8.27062 18.75 12 18.75C15.2653 18.75 18.1256 16.4297 18.75 13.35V11.2491Z" fill="#EA4335"/>
</svg>

<svg width="24" height="24" fill="none" xmlns="http://www.w3.org/2000/svg"><path d="M18.75 11.25h-6.299v2.1h3.844A4.502 4.502 0 1112 7.499a4.47 4.47 0 013.198 1.337l1.527-1.658A6.729 6.729 0 0012 5.25c-3.73 0-6.75 3.02-6.75 6.75s3.02 6.75 6.75 6.75c3.265 0 6.126-2.32 6.75-5.4v-2.1z" fill="#EA4335"/></svg>
